svgs/regular/rupiah-sign.svg

<svg xmlns="http://www.w3.org/2000/svg" viewBox="0 0 512 512"><!--! Font Awesome Pro 6.5.1 by @fontawesome - https://fontawesome.com License - https://fontawesome.com/license (Commercial License) Copyright 2023 Fonticons, Inc. --><path d="M0 56C0 42.7 10.7 32 24 32h96c75.1 0 136 60.9 136 136c0 59.4-38.1 109.9-91.1 128.4l57.5 151c4.7 12.4-1.5 26.3-13.9 31s-26.3-1.5-31-13.9L116.4 304H48V456c0 13.3-10.7 24-24 24s-24-10.7-24-24V280 56zM48 256h72c48.6 0 88-39.4 88-88s-39.4-88-88-88H48V256zm264-96h88c61.9 0 112 50.1 112 112s-50.1 112-112 112H336V488c0 13.3-10.7 24-24 24s-24-10.7-24-24V184c0-13.3 10.7-24 24-24zm88 176c35.3 0 64-28.7 64-64s-28.7-64-64-64H336V336h64z"/></svg>

<svg xmlns="http://www.w3.org/2000/svg" viewBox="0 0 512 512"><!--! Font Awesome Pro 6.1.1 by @fontawesome - https://fontawesome.com License - https://fontawesome.com/license (Commercial License) Copyright 2022 Fonticons, Inc. --><path d="M0 56C0 42.75 10.75 32 24 32H120C195.1 32 256 92.89 256 168C256 227.4 217.9 277.9 164.9 296.4L222.4 447.5C227.1 459.8 220.9 473.7 208.5 478.4C196.2 483.1 182.3 476.9 177.6 464.5L116.4 304H48V456C48 469.3 37.25 480 24 480C10.75 480 0 469.3 0 456V56zM48 256H120C168.6 256 208 216.6 208 168C208 119.4 168.6 80 120 80H48V256zM400 160C461.9 160 512 210.1 512 272C512 333.9 461.9 384 400 384H336V488C336 501.3 325.3 512 312 512C298.7 512 288 501.3 288 488V184C288 170.7 298.7 160 312 160H400zM464 272C464 236.7 435.3 208 400 208H336V336H400C435.3 336 464 307.3 464 272z"/></svg>
